X: 111
T: La stangetta
%%abc-version 2.0
%%abcx-abcm2ps-target-version 5.9.1 (29 Sep 2008)
%%abc-creator hum2abc beta
%%abcx-conversion-date 2022/03/06 13:05:56
%%abc-copyright Copyright 2018, Kolb, Paul
%%abc-edited-by Zybina, Karina
%%humdrum-veritas 1973826758
%%humdrum-veritas-data 1239218649
%%linebreak <none>
%%barnumbers 0
L: 1/4
M: 2/2
N: Derived from Gas0506-La_stangetta.krn
V: 1 clef=treble
V: 2 clef=treble-8
V: 3 clef=bass
K: F
[V:1] !tenuto!z4 | 
[V:2] z4 | 
[V:3] G,4 | 
[V:1] z4 | 
[V:2] z4 | 
[V:3] A,4 | 
[V:1] G4 | 
[V:2] z4 | 
[V:3] B,B,2A,/G,/ | 
[V:1] A4 | 
[V:2] z4 | 
[V:3] F,4 | 
[V:1] BB2A/G/ | 
[V:2] G4 | 
[V:3] G,G,2F,/E,/ | 
[V:1] F4 | 
[V:2] A4 | 
[V:3] D,4 | 
[V:1] GG2F/E/ | 
[V:2] BB2A/G/ | 
[V:3] B,,G,,2A,, | 
[V:1] Dd>cB/A/ | 
[V:2] F4 | 
[V:3] B,,>C,D,2 | 
[V:1] BB2A/G/ | 
[V:2] GG2F/E/ | 
[V:3] B,,G,,>A,,B,,/C,/ | 
[V:1] F2z2 | 
[V:2] D2z.d- | 
[V:3] D,/E,/F,/G,/A,D, | 
[V:1] F2G2- | 
[V:2] d/c/B/A/BB- | 
[V:3] F,2_E,G,- | 
[V:1] G2.A2- | 
[V:2] BA/G/F2 | 
[V:3] G,F,/E,/D,.F,- | 
[V:1] Ad>cB/A/ | 
[V:2] f2d2 | 
[V:3] F,/E,/D,/C,/D,G, | 
[V:1] GA2G- | 
[V:2] ecdB | 
[V:3] E,A,F,G, | 
[V:1] G^FG2 | 
[V:2] A2G2 | 
[V:3] D,2zG,, | 
[V:1] z4 | 
[V:2] zG>AB | 
[V:3] G,,>A,,B,,G,, | 
[V:1] z4 | 
[V:2] GB>c.d- | 
[V:3] B,,>C,D,B,, | 
[V:1] z4 | 
[V:2] d/c/B/A/GA- | 
[V:3] G,,>A,,B,,C, | 
[V:1] z4 | 
[V:2] AG2^F | 
[V:3] D,G,,A,,2 | 
[V:1] zG>AB | 
[V:2] G>ABG | 
[V:3] G,,G,_E,G,- | 
[V:1] GB>c.d- | 
[V:2] B>cdB | 
[V:3] G,F,/_E,/D,2 | 
[V:1] d/c/B/A/GA- | 
[V:2] G>ABc | 
[V:3] B,,C,B,,A,, | 
[V:1] AG2^F | 
[V:2] dGA2 | 
[V:3] D,_E,D,2 | 
[V:1] G2dd- | 
[V:2] G2z2 | 
[V:3] _E,2z.D,- | 
[V:1] dc/B/d.c- | 
[V:2] z4 | 
[V:3] D,/C,/B,,/A,,/B,,._E,- | 
[V:1] c/B/B2A | 
[V:2] z4 | 
[V:3] E,/D,/B,,C,2 | 
[V:1] B2z2 | 
[V:2] z2dd- | 
[V:3] B,,2G,,.G,- | 
[V:1] z4 | 
[V:2] dc/B/dc- | 
[V:3] G,/F,/D,/_E,/F,.E,- | 
[V:1] z4 | 
[V:2] cB2A | 
[V:3] E,/D,/C,/B,,/C,2 | 
[V:1] Bd2c/B/ | 
[V:2] B4 | 
[V:3] B,,G,,2G, | 
[V:1] A/G/F/E/DA- | 
[V:2] c2dc/B/ | 
[V:3] F,/E,/D,/C,/B,,A,,- | 
[V:1] AG/F/E2 | 
[V:2] Ad2^c | 
[V:3] A,,B,,A,,2 | 
[V:1] FB>AG/F/ | 
[V:2] d2B2 | 
[V:3] D,G,>F,E,/D,/ | 
[V:1] EA>GF/E/ | 
[V:2] c2A2 | 
[V:3] C,F,>E,D,/C,/ | 
[V:1] DG2F/E/ | 
[V:2] B2G2 | 
[V:3] B,,G,,>A,,B,,/G,,/ | 
[V:1] FG2^F | 
[V:2] A4 | 
[V:3] D,_E,D,2 | 
[V:1] G>A B/c/.B- | 
[V:2] G4- | 
[V:3] _E,>D,C,B,,/A,,/ | 
[V:1] B/A/B2A/G/ | 
[V:2] G4 | 
[V:3] B,,G,,>A,,B,,/G,,/ | 
[V:1] F>G A/B/.A- | 
[V:2] A4- | 
[V:3] D,>E, F,/D,/A, | 
[V:1] A/G<AG/F/E/ | 
[V:2] A4 | 
[V:3] D,F,>E,D,/C,/ | 
[V:1] D>EFG | 
[V:2] B4- | 
[V:3] B,,>C,D,_E, | 
[V:1] FG>FE/D/ | 
[V:2] B4 | 
[V:3] D,_E,2D, | 
[V:1] E>FGA | 
[V:2] c4- | 
[V:3] C,>D,E,F, | 
[V:1] GA>GF/E/ | 
[V:2] c4 | 
[V:3] E,F,2E, | 
[V:1] F>GAB | 
[V:2] d4- | 
[V:3] D,>E,F,G, | 
[V:1] AB>AB/c/ | 
[V:2] d4 | 
[V:3] F,B,,2A,, | 
[V:1] dD>EF/E/ | 
[V:2] G4 | 
[V:3] G,,B,,>C,D,/C,/ | 
[V:1] CE>FG/F/ | 
[V:2] A4 | 
[V:3] A,,C,>D,_E,/D,/ | 
[V:1] DF>GA/G/ | 
[V:2] B4 | 
[V:3] B,,D,>_E,F,/E,/ | 
[V:1] EG>AB/A/ | 
[V:2] c4 | 
[V:3] C,E,>F,G,/F,/ | 
[V:1] F>GAB- | 
[V:2] d4 | 
[V:3] D,>E,F,G,- | 
[V:1] BA/G/F2 | 
[V:2] G2A2 | 
[V:3] G,F,/E,/D,2 | 
[V:1] DG2F/E/ | 
[V:2] B2c2 | 
[V:3] B,,_E,2D,/C,/ | 
[V:1] DG2F/E/ | 
[V:2] d2GA | 
[V:3] B,,_E,2D,/C,/ | 
[V:1] DEDd- | 
[V:2] Bcd.G- | 
[V:3] B,,A,,B,,2 | 
[V:1] dc/B/AB | 
[V:2] G/A/B/c/d2 | 
[V:3] G,,G,F,G, | 
[V:1] AB>AG- | 
[V:2] cd2c/B/ | 
[V:3] A,D,F,G, | 
[V:1] G^FG2 |]  
[V:2] A2G2 |]  
[V:3] D,2G,,2 |]  


